X: 1567
T: Pencügâh-ı Asl ile
C: Ahmet Avni Konuk
O: Turkey
F: http://compmusic.upf.edu/node/140
N: pencgahiasl--kupe--devrirevanihindi----ahmet_avni_konuk
N: makam= pencgahiasl
N: form= kupe
N: usul= devrirevanihindi = 14/8
M: 14/8
L: 1/16
K: C _1/4B ^f  
Q: 1/4=102
%%MIDI tuningsystem comma53
dcB2 c2d4e4c4_2/4B2 A2BA G2z2  | dc_2/4B2 c2d4e2 edd4d2 e2ed d2z2  | 
w:  Pen *  *  cü gâh_ *  ı   |  Asl_ *  *  i le  *  *  *  *  tak  | 
d4 e2g2 =f2e2 d2e4d2 dfed c2_2/4B2  | \
w:  sîm  e dip  *  *  *  sî  | 
A4 _2/4B2G4e2 =f2e2 d2c2 d6z2  | 
w:  ne *  *  ke *  mân    | 
c2_2/4B2 c2d4d2 g2g2 =f2e2 fede d2c2  | \
w:  Bu  *  ma ka *  *  mın   | 
d4 e2d3cdc {d}cBB6 z8  | 
w:  sey ri  mec *  *  *  *  *  *  lis  | 
A2A2 B2c3ed2 c2B4A2 dcBA G2z2  | A_7/8BAB AGAc _2/4BAAG GFG2 F2AG G6z2  | 
w:  te  *  du yul *  *  *  du   |  bir  *  *  *  *  *  *  *  *  *  ze *  *  *  man    | 
|


